X:1
T:CAVERN ECHOES.
T:CAVERN ECHOES.
T:A GOBLIN DANCE.
T:NED ABBOTT.
T:Copyright 1905 by Pillsbury-Dana Co., Minneapolis Minn.
T:Copyright 1905 by Pillsbury-Dana Co., Minneapolis Minn.
T:Copyright 1905 by Pillsbury-Dana Co., Minneapolis Minn.
T:Copyright 1905 by Pillsbury-Dana Co., Minneapolis Minn.
C:NED ABBOTT.
Z:Copyright 1905 by Pillsbury-Dana Co., Minneapolis Minn.
%%score { ( 1 3 ) | ( 2 4 ) }
L:1/8
Q:1/4=160
M:6/8
K:F
V:1 treble nm="Piano" snm="Pno."
V:3 treble 
V:2 bass 
V:4 bass 
V:1
"^Allegretto." (3e/^f/^g/ |!mf! .az.a .b.f'.b | a3"^To My Father." z2 z | AzA BfB | A3 z2!mp! A | %5
 Bdb A2!pp! A | Bdb A2 A | e!>(!_ed BAG | F2 E!>)! .[^CEA]!mp! !fermata!z (3A,/=B,/^C/ |: %9
 Dz.^C .B,z.=C | A,zA,/C/ B,zA, | DD^C B,z=C | A,zA,/C/ B,2!<(! A, | [F,A,D]DE [A,DF]2 G | %14
 [DFA]2 F!<)! D2 D |1 EFD EFD | E z!mf! !^![GB] !^![Ae] z!mp! (3A,/=B,/^C/ :|2 EFD EFD | %18
 [^CEA]=B[GA^c] [FAd] z!f! (3A/=B/^c/ |: dz^c _Bz=c | AzA/c/ BzA | dd^c Bz=c | AzA/c/ BzA | %23
 [FAd][FAd]e [Adf]zg | [Adfa]2 f d2 d | !>!efd efd |1 [=Ge] z!ff! !^![gb] !^![ae'] z (3A/=B/d/ :|2 %27
 [A^ca]z!ff!!^![Aca] !^![dfad'] z z ||"^Cantabile." C3 D3 | F3 E3 | F2 [CG]{/B} [CA]G[CF] | %31
"^ten." [F_A=Bd]3 [CFc]2 z | D3 E3 | G3 ^F3 | G2 [DA]{/c} [DB]A[DG] |"^ten." [GBe]3 [GBd]2 z | %36
!mf! [G^ce]2 A{/B} A^GA | [Af]3 [Fd]2 z | [EGc]2 G{/A} G^FG | [CGB]3 [CFA]2 z | [^CA]2 E E^DE | %41
 [A,DG]FE [A,D]2 E | [A,F]DF [B,G]DG | [^CEA]2 z z2!f! A ||"^Animato." BfB A2!>(! E | %45
 z2 z z2!>)! A | BfB A2 E |!>(! x3 x2!>)! A | BfB =B^fB | cgc ^c^gc | [Ad]ad [f=b]ed | %51
 [A^ca] z z!ff!!8va(! [a^c'e'a']!8va)! z (3A/=B/^c/ |:[K:D]!f! dzc Bzc | AzA/c/ B2 A | ddc Bzc | %55
 AzA/c/ B2 A | [FAd]de [Adf]ga | [B^dfb]2 f [Beg]2 z |1 feb feb | f2 e A z (3A/B/c/ :|2 %60
 feb [=Gcf]2 [Gce] || [FAd]2 z !^![fac'f'] z!mf! (3e/f/^g/ ||[K:F] aza bf'b | a3 x3 | AzA BfB | %65
 A3 z2!pp! A | Bdb A2 A | Bdb A2 A | e!>(!_ed BAG | F2 E!>)! [^CEA] !fermata!z!mp! (3A,/=B,/^C/ |: %70
"^Tempo primo." Dz^C B,z=C | A,zA,/C/ B,2 A, | DD^C B,z=C | A,zA,/C/ B,2 A, | [F,A,D]DE [A,DF]2 G | %75
 [DFA]2 F D2 D |1 EFD EFD | E z !^![GB] !^![Ae] !fermata!z (3A,/=B,/^C/ :|2 EFD EFD || %79
"^rit." [=G,^CF]2 E [F,A,D]2 z | [G,^CF]2"^meno mosso"!>(! E [F,A,D]3- |"^rit." [F,A,D]6-!>)! | %82
 [F,A,D]!pp! z z z2 z |!ppp! z6 |] %84
V:2
 x | x6 | x6 | [A,-^CE]3 [A,-DF]3 | [A,^CE]zF, A,2 z | [A,-DF]3 [A,^CE]2 z | %6
 [A,-DF]3 [A,^CE]2"^cres." z | [G,B,DE]6- | [G,B,DE]"^rit." z z .[A,,G,] z z |: %9
 .D,,z.A,, .A,,,z.A,, | E,,zA,, A,,,zA,, | D,,zA,, A,,,zA,, | E,,zA,, A,,,zA,, | %13
 !^![D,,D,]2 z !^![C,,C,]2 z | !^![=B,,,=B,,]3- [B,,,B,,]2 x |1 [^G,B,]3 [=G,_B,]3 | %16
 [G,A,] z!mf! !^![A,D] !^![A,^C] z z :|2 [=B,,,=B,,]3 [_B,,,_B,,]3 | [A,,,A,,]2 z D,, z z |: %19
 D,,z[A,DF]"^poco" [A,DF] z z | %20
 D,,z"^cres-        - cen -        -    do         al         prima"[G,^CE] [G,CE] z z | %21
 D,,z[A,DF] [A,DF] z z | D,,z"^Volta."[G,^CE] [G,CE] z z | [D,D]2 z [C,C]2 z | %24
 [=B,,=B,]3- [B,,B,]2 z | !>![=B,,=B,]2 z !>![_B,,_B,]2 z |1 [A,,A,] z z z2 z :|2 %27
 [A,,A,]z[A,,A,] !^![D,,D,] z z || [C,,C,]2 z [D,,D,]2 z | [F,,F,]2 z [E,,E,]2 z | %30
 F,,z[F,A,] [F,A,] z z | D,E,F, A,2 z | [D,,D,]2 z [E,,E,]2 z | [G,,G,]2 z [^F,,^F,]2 z | %34
 G,,z[D,G,B,] [D,G,B,] z z | G,,A,,B,, D,2 z | A,,z[G,A,^C] [G,A,C]z[G,A,C] | D,E,F, A,2 z | %38
 G,,z[C,G,B,] [C,G,B,]z[C,G,B,] | C,D,E, F,2 z | A,,,z[A,,G,] [A,,G,]z[A,,G,] | %41
"^dim." [D,,D,]2 z [C,,C,]2 z | [=B,,,=B,,]2 z [_B,,,_B,,]2 z | %43
 [A,,,A,,]2 !^!E,, !^![A,,,A,,] z [A,^CE] || [A,-DF]3 [A,^CE]2 z | A,2 .E, .A,, z [A,^CE] | %46
 [A,-DF]3 [A,^CE]2 z | A,2 .E, .A,, z [A,^CE] |"^cresc." A,6- | A,6- | A,6- | %51
 A, z z !^![A,,,A,,] z z |:[K:D] D,,z[A,DF] [A,DF] z z | D,,z[G,CE] [G,CE]2 z | %54
 D,,z[A,DF] [A,DF] z z | D,,z[G,CE] [G,CE]2 z | [D,D]2 [C,C] [=C,=C]2 z | [B,,B,]2 z [E,,E,]2 z |1 %58
 E,,z[^G,DE] [G,DE]z[G,DE] | A,,z[A,CG] [A,CG]2 z :|2 E,,z[^G,DE] A,,A,A,, || %61
 D,2 z !^![D,,D,] z z ||[K:F]"^l.h." x6 | x6 | [A,-^CE]3 [A,-DF]3 | [A,^CE]zF, A,2 z | %66
 [A,-DF]3 [A,^CE]2 z | [A,-DF]3 [A,^CE]2"^cresc." z | [G,B,DE]6- | %69
 [G,B,DE]"^rit." z z [A,,G,] z z |: D,,zA,, A,,,zA,, | E,,zA,, A,,,zA,, | D,,zA,, A,,,zA,, | %73
 E,,zA,, A,,,zA,, | [D,,D,]2 z [C,,C,]2 z | [=B,,,=B,,]3- [B,,,B,,]2 x |1 [^G,B,]3 [=G,_B,]3 | %77
 [D,G,A,] x [A,D] [A,^C] z z :|2 [=B,,,=B,,]2 z [_B,,,_B,,]2 z || A,,,A,,A,,, D,,2 z | %80
 B,, z z [D,,D,]zA,, | [D,,D,]zA,, [D,,D,]zA,, | [D,,D,]zA,, [D,,D,]zA,, | [D,,D,] z z z2 z |] %84
V:3
 x | [A-^ce]3 [A-df]3 | [A^ce]zE A2 (3E/^F/^G/ | x6 | x6 | x6 | x6 | x6 | x6 |: x6 | x6 | x6 | x6 | %13
 x6 | x6 |1 x6 | x6 :|2 ^G,6 | x6 |: x6 | x6 | x6 | x6 | x6 | x6 | ^G6 |1 x2 [Ad] [A^c] x2 :|2 %27
 x6 || z2 [E,B,] z2 [F,B,] | z2 [G,B,] z2 [G,B,] | x6 | x6 | z2 [^F,C] z2 [F,C] | %33
 z2 [A,C] z2 [A,C] | x6 | x6 | x6 | x6 | x6 | x6 | x6 | x6 | x6 | x6 || x6 | x6 | x6 | x6 | %48
 [DF]3 [^D^F]3 | [EG]3 [^E^G]3 | ^F3 [^E^G]3 | [=E=G] x2!8va(! x!8va)! x2 |:[K:D] x6 | x6 | x6 | %55
 x6 | x6 | x6 |1 x6 | x6 :|2 x6 || x6 ||[K:F] [A-^ce]3 [A-df]3 | [A^ce]zE A2 (3E/^F/^G/ | x6 | x6 | %66
 x6 | x6 | x6 | x6 |: x6 | x6 | x6 | x6 | x6 | x6 |1 x6 | x6 :|2 ^G,6 || x6 | x6 | x6 | x6 | x6 |] %84
V:4
 x | x6 | x6 | x6 | x6 | x6 | x6 | x6 | x6 |: x6 | x6 | x6 | x6 | x6 | x6 |1 D,6- | D, x5 :|2 x6 | %18
 x6 |: x6 | x6 | x6 | x6 | x6 | x6 | x6 |1 x6 :|2 x6 || x6 | x6 | x6 | x6 | x6 | x6 | x6 | x6 | %36
 x6 | x6 | x6 | x6 | x6 | x6 | x6 | x6 || x6 | x6 | x6 | x6 | x6 | x6 | x6 | x6 |:[K:D] x6 | x6 | %54
 x6 | x6 | x6 | x6 |1 x6 | x6 :|2 x6 || x6 ||[K:F] x6 | x6 | x6 | x6 | x6 | x6 | x6 | x6 |: x6 | %71
 x6 | x6 | x6 | x6 | x6 |1 D,6- | x6 :|2 x6 || x6 | x6 | x6 | x6 | x3 D,,,2 x |] %84

